X: 15798
T: Goodnatured Man, The
R: hornpipe
M: 4/4
K: Gmajor
|:d/e/f|g2 bg d2 gd|BcdB G2 AB|c2 ec A2 cA|FGAB cdef|
g2 bg d2 gd|BcdB G2 AB|cedc BGAF|G2 B2 G2:|
|:Bc|d^cdB G2 =cd|ecec A2 Bc|d^cdB ed=cB|FGAB cAFA|
d^cdB G2 =cd|ecec A2 AB|cedc BGAF|G2 B2 G2:|

